Hatter-kde/actions/16/deletecell.svg

<?xml version="1.0" encoding="UTF-8"?>
<svg viewBox="0 0 16 16" xmlns="http://www.w3.org/2000/svg">
 <defs id="defs3051">
  <style id="current-color-scheme" type="text/css">.ColorScheme-Text {
        color:#363636;
      }
      .ColorScheme-NegativeText {
        color:#da4453;
      }</style>
 </defs>
 <path class="ColorScheme-Text" d="m2 2v12h5v-1-3-1-3h2v1h1v-1h3v1h1v-5h-12zm1 1h3v2h-3v-2zm4 0h2v2h-2v-2zm3 0h3v2h-3v-2zm-7 3h3v3h-3v-3zm0 4h3v3h-3v-3z" fill="currentColor"/>
 <path class="ColorScheme-NegativeText" d="M 8.99,8 8,8.99 10.01,11 8,13.01 8.99,14 11,11.99 13.01,14 14,13.01 11.99,11 14,8.99 13.01,8 11,10.01 Z" fill="currentColor"/>
</svg>

<svg xmlns="http://www.w3.org/2000/svg" viewBox="0 0 16 16">
  <defs id="defs3051">
    <style type="text/css" id="current-color-scheme">
      .ColorScheme-Text {
        color:#363636;
      }
      .ColorScheme-NegativeText {
        color:#da4453;
      }
      </style>
  </defs>
 <path style="fill:currentColor;fill-opacity:1;stroke:none" 
     d="M 2 2 L 2 14 L 7 14 L 7 13 L 7 10 L 7 9 L 7 6 L 9 6 L 9 7 L 10 7 L 10 6 L 13 6 L 13 7 L 14 7 L 14 2 L 2 2 z M 3 3 L 6 3 L 6 5 L 3 5 L 3 3 z M 7 3 L 9 3 L 9 5 L 7 5 L 7 3 z M 10 3 L 13 3 L 13 5 L 10 5 L 10 3 z M 3 6 L 6 6 L 6 9 L 3 9 L 3 6 z M 3 10 L 6 10 L 6 13 L 3 13 L 3 10 z "
     class="ColorScheme-Text"
     />
  <path
     style="fill:currentColor;fill-opacity:1;stroke:none" 
     class="ColorScheme-NegativeText"
     d="M 8.99,8 8,8.99 10.01,11 8,13.01 8.99,14 11,11.99 13.01,14 14,13.01 11.99,11 14,8.99 13.01,8 11,10.01 Z" />
</svg>
